X:1
T:Fili! Ego Salomon
T:Jan Baptist Verrijt
T:Fili! Ego Salomon
T:Dialogus
C:Jan Baptist Verrijt
%%score [ 1 2 3 ] 4
L:1/8
Q:1/4=80
M:2/2
K:F
V:1 alto nm="Altus" snm="A"
V:2 tenor nm="Tenor" snm="T"
V:3 bass nm="Bassus" snm="B"
V:4 bass nm="Basso Continuo" snm="BC"
V:1
 z8 | z8 | z8 | z8 | z8 | z8 | G,>G,B,>G, B,>B,D>B, | D>DF>D F>FA>F | G>A B2 A4 | G4 z4 | z8 | z8 | %12
w: ||||||Quis me vo- cat, quis me vo- cat,|quis me vo- cat, quis me vo- cat,|quis * me vo-|cat?|||
 z8 | z8 | z8 | z8 | z8 | z8 |[M:3/4] z6 | z D2 D2 C | B,2 B,2 z2 | z _E2 E2 D | C2 C2 z2 | %23
w: |||||||In- ten- de|mi- hi,|in- ten- de|mi- hi,|
 z F2 F2 E | D2 D2 D2 | G3 G F2 | _E2 F2 G2 | G2 G3 ^F |[M:2/2] G4 z2 B,2- | B,2 B,>B, B,3 A, | %30
w: in- ten- de|mi- hi et|per- ci- pe|cor- * de|quae lo- *|quar. Lo-|* que- re pa- *|
 B,B,D>E FF/F/FF/F/ | _E>D E/D/E/F/ DGD>=E | FE/F/ D/E/F/D/ E>F G2- | G2 ^F2 G4 | z8 | z8 | z8 | %37
w: ter nam au- dit fi- li- us, fi- li- us|tu- * * * * * us, nam au- dit|fi- li- us tu- * * * * * *|* * us.||||
 z8 | z8 | z8 | z8 | z2 G4 F>E | E2 A4 E>E | E2 D4 ^C>C | ^C2 E>E ^FFFF/F/ | %45
w: ||||Heu! pa- ter|mi, heu! pa- ter|mi, heu! pa- ter|mi, u- ti- nam non ac- qui- e-|
 GF/E/ D/E/F/D/ E/D/E/F/ E/F/G/E/ | ^FG/A/ G4 F2 | G4 z4 | z8 | z2 D3 CC>B, | B,3 A, A,4 | G,8 | %52
w: vis- * * * * * * * * * * * * * *||sem!||Ac- qui- e- vi,|Ac- qui- e-|vi.|
[M:3/4] z6 | z D2 D2 C | B,2 B,2 z2 | z _E2 E2 D | C2 C2 z2 | z F2 F2 E | D2 D2 D2 | G3 G F2 | %60
w: |In- ten- de|mi- hi,|in- ten- de|mi- hi,|in- ten- de|mi- hi et|per- ci- pe|
 _E2 F2 G2 | G2 G3 ^F |[M:2/2] G4 z4 | z8 | z4 z =B, C/D/_E/F/ | G4 z F_E>D | _E6 D>C | D8 | %68
w: cor- * de|quae lo- *|quar.||Heu! * * * *|* pa- ter, pec-|ca- * *||
 C4 z _ED>C | DE/F/ G4 ^F2 | G4 z4 | z8 | z8 | z8 | z8 | z2 A2 E2 E>A | ^F2 F2 z4 | z8 | z8 | z8 | %80
w: vi, pa- ter, pec-|ca- * * * *|vi!|||||Quid in- de, quid|in- de?||||
 z2 A3 A E/F/G/A/ | ^F2 G2 G3 F | GGF>_E D4 | E2 F3 F E2 | FAG>F E4 |[M:3/4] D4 z2 | z D2 D2 C | %87
w: I- gi- tur * * *|di- mit- tan- *|tur, si de- pre- ca-|bor, de- pre- ca-|bor, si de- pre- ca-|bor?|In- ten- de|
 B,2 B,2 z2 | z _E2 E2 D | C2 C2 z2 | z F2 F2 E | D2 D2 D2 | G3 G F2 | _E2 F2 G2 | G2 G3 ^F | %95
w: mi- hi,|in- ten- de|mi- hi,|in- ten- de|mi- hi et|per- ci- pe|cor- * de|quae lo- *|
[M:2/2] G4 z4 | z8 | z8 |[M:3/4] z2 F2 G2 | A2 A2 A2 | G3 G F2- | F2 E4 | D4 z2 | z2 C2 D2 | %104
w: quar.|||De- pre-|ce- mur, o|fi- li- i|* om-|nes,|Chris- tum|
 _E2 E2 z2 | z2 B,2 C2 | D4 C2 | C6 |[M:2/2] B,4 z ^FF>F | G2 G2 z DD>D | _E2 E2 z =B,B,>B, | %111
w: re- gem,|re- gem|Sal- va-|to-|rem, cor- de con-|tri- to, cor- de con-|tri- to, cor- de con-|
 C2 C2 z CC>C | D2 D2 z DD>D | EF/E/F/E/F/E/ E3 D | D4 z DDD | _EF/E/ DE/F/ CD C2 | D4 z4 | %117
w: tri- to, cor- de con-|tri- to, cor- de con-|tri- * * * * * * * *|to, ut no- bis|di- * * * * * * mit- tan-|tur,|
 z G,G,G, A,/B,/C/A,/ B,/C/D/E/ | ^F2 G4 F2 | G8 |] %120
w: ut no- bis di- * * * * * * *|* mit- tan-|tur.|
V:2
 z8 | z8 | z8 | z8 | z8 | z8 | z4 G,G,B,>G, | B,B,D>B, DDF>D | E>F G4 ^F2 | G4 z4 | z8 | z8 | z8 | %13
w: ||||||Quis me vo- cat,|quis me vo- cat, quis me vo- cat,|quis me vo- *|cat?||||
 z8 | z8 | z8 | z8 | z8 |[M:3/4] z6 | z B,2 B,2 A, | G,2 G,2 z2 | z C2 C2 B, | A,2 A,2 z2 | %23
w: ||||||In- ten- de|mi- hi,|in- ten- de|mi- hi,|
 z D2 D2 C | B,2 B,3 B, | _E3 E D2 | C4 B,2- | B,A, A,4 |[M:2/2] G,4 z2 D2- | D2 C>C C4 | %30
w: in- ten- de|mi- hi et|per- ci- pe|cor- de|quae * lo-|quar. Lo-|* que- re pa-|
 B,4 z F,A,>B, | CC/C/CC/C/ B,>A,B,/A,/B,/C/ | A,DA,>=B, CB,/C/ G,/A,/_B,/G,/ | A,4 G,4 | z8 | z8 | %36
w: ter nam au- dit|fi- li- us, fi- li- us tu- * * * * *|us, nam au- dit fi- li- us tu- * * *|* us.|||
 z8 | z8 | z8 | z8 | z8 | z4 z2 D2- | D2 ^C>C C4 | z2 F4 E>E | E4 z2 A,>A, | %45
w: |||||Heu!|* pa- ter mi,|heu! pa- ter|mi, u- ti-|
 =B,B,B,B,/B,/ C_B,/A,/ G,/A,/B,/G,/ | A,/B,/C/A,/ B,/C/D/G,/ A,/B,/C/B,/ A,>G, | G,4 z4 | z8 | %49
w: nam non ac- qui- e- vis- * * * * * *||sem!||
 z2 B,3 A, A,2- | A,G,G,G, G,3 ^F, | G,8 |[M:3/4] z6 | z B,2 B,2 A, | G,2 G,2 z2 | z C2 C2 B, | %56
w: Ac- qui- e-|* vi, Ac- qui- e- *|vi.||In- ten- de|mi- hi,|in- ten- de|
 A,2 A,2 z2 | z D2 D2 C | B,2 B,3 B, | _E3 E D2 | C4 B,2- | B,A, A,4 |[M:2/2] G,4 z4 | z8 | %64
w: mi- hi,|in- ten- de|mi- hi et|per- ci- pe|cor- de|quae * lo-|quar.||
 z G, A,/B,/C/D/ _E4 | z _ED>C D4- | D2 C2 C4- | C2 =B,>A, B,C/D/ C>B, | CDC=B, C4- | %69
w: Heu! * * * * *|pa- ter, pec- ca-|||vi, pa- ter, pec- ca-|
 C2 B,>A, A,3 G, | G,4 z4 | z8 | z8 | z8 | z8 | z8 | z2 D2 A,2 A,>D | =B,2 B,2 z4 | z8 | z8 | z8 | %81
w: * vi, pec- ca- *|vi!||||||Quid in- de, quid|in- de?||||
 z2 D3 D A,/B,/C/D/ | =B,2 C2 C3 B, | CCB,>A, G,4 | F,FED D3 ^C |[M:3/4] D4 z2 | z B,2 B,2 A, | %87
w: I- gi- tur * * *|di- mit- tan- *|tur, si de- pre- ca-|bor, si de- pre- ca- *|bor?|In- ten- de|
 G,2 G,2 z2 | z C2 C2 B, | A,2 A,2 z2 | z D2 D2 C | B,2 B,3 B, | _E3 E D2 | C4 B,2- | B,A, A,4 | %95
w: mi- hi,|in- ten- de|mi- hi,|in- ten- de|mi- hi et|per- ci- pe|cor- de|* quae lo-|
[M:2/2] G,4 z4 | z8 | z8 |[M:3/4] z2 D2 E2 | F2 F2 F2 | E3 E D2- | D2 ^C4 | D4 z2 | z2 A,2 B,2 | %104
w: quar.|||De- pre-|ce- mur, o|fi- li- i|* om-|nes,|Chris- tum|
 C2 C2 z2 | z2 G,2 A,2 | B,2 B,4 | B,4 A,2 |[M:2/2] B,2 D>C C2 C2 | z2 B,>A, A,2 A,2 | %110
w: re- gem,|re- gem|Sal- va-|to- *|rem, et ro- ge- mus,|et ro- ge- mus,|
 z2 G,>F, F,2 F,2 | z G,G,>G, _A,2 A,2 | z A,A,>A, B,2 B,2 | z =B,^C>D D3 C | %114
w: et ro- ge- mus,|cor- de con- tri- to,|cor- de con- tri- to,|cor- de con- tri- *|
 DA,A,>A, B,C/B,/A,B,/A,/ | G,2 B,4 A,2 | B,F,F,>F, G,A,/G,/F,G,/F,/ | E,2 E,2 ^F,2 G,2 | %118
w: to, ut no- bis di- * * * * *|* mit- tan-|tur, ut no- bis di- * * * * *|* mit- tan- tur,|
 A,2 B,/A,/C/B,/ A,4 | G,8 |] %120
w: di- mit- * * * tan-|tur.|
V:3
 z8 | G,4- G,F,/E,/ D,/C,/B,,/A,,/ | G,,4 z/ D,/E,/F,/ G,/F,/G,/D,/ | %3
w: |Fi- * * * * * * *||
 _E,/C/B,/A,/ G,/F,/E,/D,/ C,D,/E,<D,C,/ | B,,>^F,,G,,>A,, B,,C,/D,/C,D,/_E,/ | %5
w: ||
 D,E,/^F,/ G,3 F,/E,/ F,2 | G,4 z4 | z8 | z8 | z2 G,>G, G,>A,G,>A, | G,>A, B,/A,/C/B,/ A,3 G, | %11
w: |li!|||E- go, e- * * *|* * go * * * Sa- lo-|
 G,4 z G, A,/G,/A,/B,/ | C>B, C/B,/C/A,/ B,>A, B,/A,/B,/G,/ | A,A,,A,>G, F,2 D,/E,/F,/G,/ | %14
w: mon, qui te- * * *||* cum al- lo- qui op- * * *|
 A,>G,, A,,2 D,4 | z/ G,,/A,,/B,,/ C,/D,/E,/F,/ G,A,/G,<F,E,/ | D,C,/D,/B,,A,,/G,,/ D,2 D,,2 | %17
w: * * * to;|i- * * * * * * * * * * *|* * * * * * * de-|
 G,,8 |[M:3/4] z D,2 D,2 C, | B,,2 B,,2 z2 | z _E,2 E,2 D, | C,2 C,2 z2 | z F,2 F,2 E, | %23
w: o:|In- ten- de|mi- hi,|in- ten- de|mi- hi,|in- ten- de|
 D,2 D,2 z2 | z2 z2 G,2 | _E,3 E, =B,,2 | C,2 D,2 _E,2 | C,2 D,4 |[M:2/2] G,,4 z4 | z8 | z8 | z8 | %32
w: mi- hi|et|per- ci- pe|cor- * de|quae lo-|quar.||||
 z8 | z4 z2 G,,2 | G,>A, B,>C A,3 A, | G,2 _E,4 D,2 | F,_E,/D,/ C,/B,,/A,,/G,,/ F,,_E,, F,,2 | %37
w: |Si|te * lac- * ta- ve-|rint pec- ca-|to- * * * * * * * * *|
 B,,4 z D,D,>E, | ^F,G,/A,/ G,A,/B,/ A,4 | G,4 z G,,G,,>A,, | =B,,C,/D,/ C,D,/_E,/ D,4 | G,,4 z4 | %42
w: res, ne ac- qui-|es- * * cas * * e-|is, ne ac- qui-|es- * * cas * * e-|is.|
 z8 | z8 | z8 | z8 | z8 | z ^F,G,>A, B,4 | B,2 ^F,G, _E,>D, E,/D,/E,/C,/ | D,4 z4 | z8 | z8 | %52
w: |||||Ac- * * *|qui- e- vis- * * * * * *|ti?|||
[M:3/4] z D,2 D,2 C, | B,,2 B,,2 z2 | z _E,2 E,2 D, | C,2 C,2 z2 | z F,2 F,2 E, | D,2 D,2 z2 | %58
w: In- ten- de|mi- hi,|in- ten- de|mi- hi,|in- ten- de|mi- hi|
 z2 z2 G,2 | _E,3 E, =B,,2 | C,2 D,2 _E,2 | C,2 D,4 |[M:2/2] G,,4 z2 G,2 | %63
w: et|per- ci- pe|cor- * de|quae lo-|quar. Pec-|
 _E,2 E,>G, E,2 =B,,>B,, | C,D,/_E,/ F,/G,/A,/B,/ CE,/D,/ C,/=B,,/C, | G,,8 | z8 | z8 | z8 | z8 | %70
w: cas- ti, pec- cas- ti, pec-|cas- * * * * * * * * * * * *|ti?|||||
 z2 G,,4 G,,2 | C,2 A,,2 G,,2 G,2- | G,2 ^F,2 G,G,G,>A, | B,3 B, F,F,F,>G, | A,3 G, F,2 E,>D, | %75
w: Ne ad-|i- ci- as i-|* te- rum, sed et de|pris- ti- nis, sed et de|pris- ti- nis de- pre-|
 A,8 | D,4 z2 D,2 | G,3 F, _E,2 D,2 | F,4 B,,4 | z2 F,,2 B,,3 A,, | G,,2 D,2 A,,4 | D,8 | z8 | z8 | %84
w: ca-|re, ut|ti- bi di- mit-|tan- tur,|ut ti- bi|di- mit- tan-|tur.|||
 z8 |[M:3/4] z D,2 D,2 C, | B,,2 B,,2 z2 | z _E,2 E,2 D, | C,2 C,2 z2 | z F,2 F,2 E, | D,2 D,2 z2 | %91
w: |In- ten- de|mi- hi,|in- ten- de|mi- hi,|in- ten- de|mi- hi|
 z2 z2 G,2 | _E,3 E, =B,,2 | C,2 D,2 _E,2 | C,2 D,4 |[M:2/2] G,,2 G,,>A,,B,,>C,D,>E, | %96
w: et|per- ci- pe|cor- * de|quae lo-|quar: Di- * * * * *|
 F,2 E,/F,/G,/F,/ E,4 | D,8 |[M:3/4] z2 D,2 C,2 | F,2 F,2 F,2 | G,3 G, G,2 | A,6 | D,2 D,2 E,2 | %103
w: * mit- * * * tan-|tur.|De- pre-|ce- mur, o|fi- li- i|om-|nes, Chris- tum|
 F,2 F,2 z2 | z2 C,2 D,2 | _E,2 E,2 z2 | z2 D,2 _E,2 | F,3 _E, F,2 |[M:2/2] B,,2 B,>A, A,2 A,2 | %109
w: re- gem,|Chris- tum|re- gem,|re- gem|Sal- va- to-|rem, et ro- ge- mus,|
 z2 G,>F, F,2 F,2 | z2 _E,>D, D,2 D,2 | z E,E,>E, F,2 F,2 | z ^F,F,>F, G,2 G,2 | %113
w: et ro- ge- mus,|et ro- ge- mus,|cor- de con- tri- to,|cor- de con- tri- to,|
 z ^G,G,>G, A,2 A,2 | z ^F,F,>F, G,A,/G,/=F,G,/F,/ | _E,2 E,2 F,4 | B,,4 z =B,,B,,>B,, | %117
w: cor- de con- tri- to,|ut no- bis di- * * * * *|* mit- tan-|tur, ut no- bis|
 C,D,/C,/B,,C,/B,,/ A,,2 G,,2 | D,8 | G,,8 |] %120
w: di- * * * * * * mit-|tan-|tur.|
V:4
 z8 | G,4- G,F,/E,/ D,/C,/B,,/A,,/ | G,,8 | C,8 | B,,>^F,,G,,>A,, B,,2 C,2 | D,2 B,,2 C,2 D,2 | %6
w: |||z||x 6 * x|
 G,,8 | B,,4 D,4 | C,2 B,,2 C,2 D,2 | G,,4 G,4- | G,2 B,2 A,4 | G,6 G,2 | C4 B,4 | A,3 G, F,2 D,2 | %14
w: ||* 6 ^5 x||* 6 6~x||||
 A,,4 D,4 | G,6 F,E, | D,C,B,,A,,/G,,/ D,4 | G,,8 |[M:3/4] z D,2 D,2 C, | B,,6 | _E,3 E,2 D, | %21
w: |||y||||
 C,6 | F,3 F,2 E, | D,4 D,2 | G,4 G,2 | _E,3 E, =B,,2 | C,2 D,2 _E,2 | C,2 D,4 |[M:2/2] G,,4 G,4- | %29
w: z||||* * 5~y|||y z|
 G,2 D,2 _E,2 F,2 | B,,4 D,4 | C,4 G,,4 | D,4 C,2 _E,2 | C,2 D,2 G,,4 | G,2 B,2 A,4 | %35
w: * 6 ^5 *||z *|* y *|^5 * *|* 6 7|
 G,2 _E,4 D,2 | F,4 F,,4 | B,,4 B,,3 C, | D,2 B,,2 C,2 D,2 | G,,4 G,,2 G,,>A,, | =B,,2 C,2 D,4 | %41
w: * * 6|4 3||x 6 6 x|||
 G,,4 D,4 | A,,8 | A,,8 | A,,4 D,4 | G,,4 C,4 | A,,2 G,,2 D,4 | G,,2 G,>A, B,4- | B,2 ^F,G, _E,4 | %49
w: |||x x|y *|||* 6 * 6|
 D,8- | D,8 | G,,8 |[M:3/4] z D,2 D,2 C, | B,,6 | _E,3 E,2 D, | C,6 | F,3 F,2 E, | D,6 | G,4 G,2 | %59
w: ||y||||z||||
 _E,3 E, =B,,2 | C,2 D,2 _E,2 | C,2 D,4 |[M:2/2] G,,4 =B,,4 | C,4 _E,2 =B,,2 | C,8 | G,,8 | G,,8- | %67
w: * * 5~y|z * *||* 6|z * 6|z|||
 G,,8 | C,6 B,,A,, | G,,4 D,4 | G,,6 G,,2 | C,2 A,,2 G,,2 G,2- | G,2 ^F,2 G,4 | G,,G,,G,,A,, B,,4 | %74
w: |||||* 6 *|* * * * 5|
 F,,4 F,2 E,D, | A,,8 | D,8 | G,,2 G,>F, _E,2 D,2 | F,4 B,,4 | F,2 F,,2 B,,3 A,, | G,,2 D,2 A,,4 | %81
w: ||x|y * * 6 6||||
 D,8 | G,,8 | C,8 | F,,2 G,,2 A,,4 |[M:3/4] D,3 D,2 C, | B,,6 | _E,3 E,2 D, | C,6 | F,3 F,2 E, | %90
w: |||||||z||
 D,4 D,2 | G,4 G,2 | _E,3 E, =B,,2 | C,2 D,2 _E,2 | C,2 D,4 |[M:2/2] G,,2 G,,>A,,B,,>C, D,2- | %96
w: ||* * 5~y|z * *||y z * * * *|
 D,2 G,,2 A,,4 | D,8 |[M:3/4] z2 D,2 C,2 | F,2 F,2 F,2 | G,3 G, G,2 | A,6 | D,2 D,2 E,2 | F,2 F,4 | %104
w: * 6 x|x|y *||6 * 5||||
 C,4 D,2 | _E,2 E,4 | D,4 _E,2 | F,3 _E, F,2 |[M:2/2] B,,2 B,2 A,4 | G,4 F,4 | _E,4 D,4 | E,4 F,4 | %112
w: z *||6 ^5|4 * 3|* * 6~x|* 6|* 6~y|6 z|
 ^F,4 G,4 | ^G,4 A,4 | ^F,4 G,2 =F,2 | _E,4 F,4 | B,,4 =B,,4 | C,2 B,,2 A,,2 G,,2 | D,8 | G,,8 |] %120
w: 6 *|^y 4|6 * 6||* 6|* ^4 6~x *||y|

